img/kolodcy.svg

<svg width="115" height="115" viewBox="0 0 115 115" fill="none" xmlns="http://www.w3.org/2000/svg">
<g filter="url(#filter0_i_1836_1305)">
<rect width="115" height="115" rx="15" fill="#F8F4F4"/>
</g>
<g filter="url(#filter1_d_1836_1305)">
<path fill-rule="evenodd" clip-rule="evenodd" d="M97.8611 39.4375H18V89.403C18 95.5353 35.8775 100.506 57.9306 100.506C79.9836 100.506 97.8611 95.5353 97.8611 89.403V39.4375Z" fill="white"/>
</g>
<g filter="url(#filter2_i_1836_1305)">
<ellipse cx="57.9306" cy="40.2304" rx="39.9306" ry="11.1034" fill="#707070"/>
</g>
<g filter="url(#filter3_d_1836_1305)">
<mask id="mask0_1836_1305" style="mask-type:alpha" maskUnits="userSpaceOnUse" x="18" y="39" width="80" height="62">
<path fill-rule="evenodd" clip-rule="evenodd" d="M97.8611 39.4375H18V89.403C18 95.5353 35.8775 100.506 57.9306 100.506C79.9836 100.506 97.8611 95.5353 97.8611 89.403V39.4375Z" fill="white"/>
</mask>
<g mask="url(#mask0_1836_1305)">
<path fill-rule="evenodd" clip-rule="evenodd" d="M59.0374 103.062C46.9344 103.095 16.8579 103.178 16.5041 103.196C16.4906 102.58 16.4416 82.0521 16.4856 78.7017C16.505 75.7912 18.5306 73.7336 21.3379 73.7474C24.1452 73.7612 26.1296 75.8312 26.141 78.7546C26.1416 78.9368 26.1395 79.119 26.1375 79.3011C26.125 80.4069 26.1126 81.5055 26.6777 82.5547C27.6789 84.4338 29.7952 85.4954 31.821 85.0359C32.8624 84.8166 33.7987 84.2514 34.4775 83.4325C35.1564 82.6135 35.5377 81.5891 35.5594 80.5259C35.569 79.5742 35.57 78.6219 35.5711 77.6696C35.5726 76.3998 35.574 75.1299 35.5957 73.8609C35.6027 72.6009 36.0905 71.3909 36.9596 70.4779C37.8287 69.5648 39.0136 69.0174 40.2728 68.9472L40.314 68.9474C42.7897 68.7543 45.0995 71.3426 44.9706 73.8512C44.8856 75.5005 44.8883 77.1244 46.0068 78.5381C46.6039 79.2706 47.4042 79.8106 48.3074 80.0904C49.2105 80.3702 50.1762 80.3772 51.0834 80.1107C53.0736 79.4863 54.4077 77.8512 54.4447 75.9161C54.4579 74.9874 54.4589 74.0591 54.4599 73.1312C54.4611 71.9713 54.4624 70.8119 54.4875 69.6525C54.5009 68.97 54.5749 68.3203 54.7366 67.7186C54.8302 67.3179 54.9719 66.9307 55.1591 66.5674C55.5171 65.8724 56.0299 65.2874 56.65 64.8667C57.2701 64.4461 57.9772 64.2034 58.7058 64.1613C58.8565 64.1525 59.0069 64.1525 59.1568 64.1609C59.3204 64.1535 59.4848 64.1545 59.6492 64.1642C60.4459 64.2111 61.2177 64.4583 61.8931 64.883C62.5686 65.3076 63.1257 65.8959 63.5127 66.5932C63.8997 67.2905 64.1041 68.0742 64.1069 68.8716C64.1066 70.6338 64.0977 74.1595 64.0853 78.3027C64.6205 79.1481 65.4387 79.8067 66.4417 80.1581C67.2695 80.43 68.1525 80.4286 68.9799 80.1542C69.8073 79.8798 70.5422 79.3445 71.0925 78.6155C72.1236 77.2085 72.1358 75.5847 72.0679 73.9349C71.9651 71.4255 74.0925 68.8509 76.3548 69.0586L76.3924 69.0588C77.5432 69.1364 78.6233 69.6908 79.4124 70.609C80.2015 71.5271 80.6402 72.7399 80.6391 74C80.6513 75.2691 80.645 76.539 80.6387 77.8087C80.634 78.761 80.6293 79.7133 80.6323 80.6651C80.6458 81.7283 80.9882 82.7551 81.604 83.578C82.2197 84.401 83.0724 84.9716 84.0231 85.1971C85.8725 85.6686 87.8138 84.6195 88.7404 82.7463C89.2633 81.7005 89.2586 80.6019 89.2538 79.496C89.253 79.314 89.2522 79.1317 89.2538 78.9495C89.2818 76.0262 91.1085 73.968 93.6752 73.9708C96.2419 73.9735 98.0815 76.0431 98.0818 78.9536C98.1019 82.3043 97.934 102.832 97.918 103.447C97.5947 103.427 70.1062 103.167 59.0374 103.062Z" fill="#C1141E"/>
</g>
</g>
<g filter="url(#filter4_d_1836_1305)">
<path fill-rule="evenodd" clip-rule="evenodd" d="M48.0879 15.4605C47.7278 14.8697 46.9075 14.8402 46.5199 15.4134C44.7448 18.0382 40.5685 24.809 39.0919 32.3746C38.943 32.9144 38.8478 33.4763 38.8122 34.0541C38.8067 34.0939 38.8013 34.1337 38.796 34.1735C38.7438 34.5661 38.7568 34.9374 38.8274 35.2871C39.1945 39.5244 42.7742 42.8499 47.136 42.8499C51.551 42.8499 55.1647 39.4428 55.4566 35.1317C55.469 35.0121 55.4753 34.8899 55.4753 34.7651C55.4753 34.7353 55.4752 34.7054 55.4749 34.6755C55.4754 34.6397 55.4756 34.6038 55.4756 34.5678C55.4756 34.2896 55.4618 34.0147 55.4348 33.7436C54.9384 27.2567 50.0026 18.6022 48.0879 15.4605Z" fill="white"/>
</g>
<g filter="url(#filter5_d_1836_1305)">
<path fill-rule="evenodd" clip-rule="evenodd" d="M71.1861 29.7359C70.8329 29.141 70.0164 29.1167 69.6391 29.6967C68.4217 31.5681 66.1622 35.4718 65.3205 39.7918C65.2296 40.1231 65.1712 40.4678 65.1489 40.8222C65.1452 40.8491 65.1415 40.876 65.138 40.9029C65.1053 41.1484 65.1137 41.3804 65.1583 41.5989C65.3883 44.2293 67.6112 46.2932 70.3196 46.2932C73.0674 46.2932 75.3156 44.1687 75.4897 41.4835C75.4964 41.4139 75.4998 41.3428 75.4998 41.2704C75.4998 41.2597 75.4998 41.249 75.4997 41.2382C75.5003 41.2082 75.5005 41.1781 75.5005 41.148C75.5005 40.9683 75.4912 40.7908 75.4731 40.6158C75.1784 36.8704 72.5131 31.9711 71.1861 29.7359Z" fill="white"/>
</g>
<defs>
<filter id="filter0_i_1836_1305" x="0" y="0" width="117" height="117" filterUnits="userSpaceOnUse" color-interpolation-filters="sRGB">
<feFlood flood-opacity="0" result="BackgroundImageFix"/>
<feBlend mode="normal" in="SourceGraphic" in2="BackgroundImageFix" result="shape"/>
<feColorMatrix in="SourceAlpha" type="matrix" values="0 0 0 0 0 0 0 0 0 0 0 0 0 0 0 0 0 0 127 0" result="hardAlpha"/>
<feOffset dx="2" dy="2"/>
<feGaussianBlur stdDeviation="3"/>
<feComposite in2="hardAlpha" operator="arithmetic" k2="-1" k3="1"/>
<feColorMatrix type="matrix" values="0 0 0 0 0 0 0 0 0 0 0 0 0 0 0 0 0 0 0.05 0"/>
<feBlend mode="normal" in2="shape" result="effect1_innerShadow_1836_1305"/>
</filter>
<filter id="filter1_d_1836_1305" x="15" y="32.4375" width="85.8613" height="68.0684" filterUnits="userSpaceOnUse" color-interpolation-filters="sRGB">
<feFlood flood-opacity="0" result="BackgroundImageFix"/>
<feColorMatrix in="SourceAlpha" type="matrix" values="0 0 0 0 0 0 0 0 0 0 0 0 0 0 0 0 0 0 127 0" result="hardAlpha"/>
<feOffset dy="-4"/>
<feGaussianBlur stdDeviation="1.5"/>
<feComposite in2="hardAlpha" operator="out"/>
<feColorMatrix type="matrix" values="0 0 0 0 0 0 0 0 0 0 0 0 0 0 0 0 0 0 0.25 0"/>
<feBlend mode="normal" in2="BackgroundImageFix" result="effect1_dropShadow_1836_1305"/>
<feBlend mode="normal" in="SourceGraphic" in2="effect1_dropShadow_1836_1305" result="shape"/>
</filter>
<filter id="filter2_i_1836_1305" x="18" y="29.127" width="79.8613" height="26.207" filterUnits="userSpaceOnUse" color-interpolation-filters="sRGB">
<feFlood flood-opacity="0" result="BackgroundImageFix"/>
<feBlend mode="normal" in="SourceGraphic" in2="BackgroundImageFix" result="shape"/>
<feColorMatrix in="SourceAlpha" type="matrix" values="0 0 0 0 0 0 0 0 0 0 0 0 0 0 0 0 0 0 127 0" result="hardAlpha"/>
<feOffset dy="4"/>
<feGaussianBlur stdDeviation="2.5"/>
<feComposite in2="hardAlpha" operator="arithmetic" k2="-1" k3="1"/>
<feColorMatrix type="matrix" values="0 0 0 0 0 0 0 0 0 0 0 0 0 0 0 0 0 0 0.5 0"/>
<feBlend mode="normal" in2="shape" result="effect1_innerShadow_1836_1305"/>
</filter>
<filter id="filter3_d_1836_1305" x="15" y="63.1543" width="85.8613" height="42.3516" filterUnits="userSpaceOnUse" color-interpolation-filters="sRGB">
<feFlood flood-opacity="0" result="BackgroundImageFix"/>
<feColorMatrix in="SourceAlpha" type="matrix" values="0 0 0 0 0 0 0 0 0 0 0 0 0 0 0 0 0 0 127 0" result="hardAlpha"/>
<feOffset dy="2"/>
<feGaussianBlur stdDeviation="1.5"/>
<feComposite in2="hardAlpha" operator="out"/>
<feColorMatrix type="matrix" values="0 0 0 0 0 0 0 0 0 0 0 0 0 0 0 0 0 0 0.3 0"/>
<feBlend mode="normal" in2="BackgroundImageFix" result="effect1_dropShadow_1836_1305"/>
<feBlend mode="normal" in="SourceGraphic" in2="effect1_dropShadow_1836_1305" result="shape"/>
</filter>
<filter id="filter4_d_1836_1305" x="35.7642" y="14" width="22.7114" height="33.8496" filterUnits="userSpaceOnUse" color-interpolation-filters="sRGB">
<feFlood flood-opacity="0" result="BackgroundImageFix"/>
<feColorMatrix in="SourceAlpha" type="matrix" values="0 0 0 0 0 0 0 0 0 0 0 0 0 0 0 0 0 0 127 0" result="hardAlpha"/>
<feOffset dy="2"/>
<feGaussianBlur stdDeviation="1.5"/>
<feComposite in2="hardAlpha" operator="out"/>
<feColorMatrix type="matrix" values="0 0 0 0 0 0 0 0 0 0 0 0 0 0 0 0 0 0 0.25 0"/>
<feBlend mode="normal" in2="BackgroundImageFix" result="effect1_dropShadow_1836_1305"/>
<feBlend mode="normal" in="SourceGraphic" in2="effect1_dropShadow_1836_1305" result="shape"/>
</filter>
<filter id="filter5_d_1836_1305" x="62.1182" y="28.2754" width="16.3823" height="23.0176" filterUnits="userSpaceOnUse" color-interpolation-filters="sRGB">
<feFlood flood-opacity="0" result="BackgroundImageFix"/>
<feColorMatrix in="SourceAlpha" type="matrix" values="0 0 0 0 0 0 0 0 0 0 0 0 0 0 0 0 0 0 127 0" result="hardAlpha"/>
<feOffset dy="2"/>
<feGaussianBlur stdDeviation="1.5"/>
<feComposite in2="hardAlpha" operator="out"/>
<feColorMatrix type="matrix" values="0 0 0 0 0 0 0 0 0 0 0 0 0 0 0 0 0 0 0.25 0"/>
<feBlend mode="normal" in2="BackgroundImageFix" result="effect1_dropShadow_1836_1305"/>
<feBlend mode="normal" in="SourceGraphic" in2="effect1_dropShadow_1836_1305" result="shape"/>
</filter>
</defs>
</svg>

<svg width="115" height="115" fill="none" xmlns="http://www.w3.org/2000/svg"><g filter="url(#filter0_i_1836_1305)"><rect width="115" height="115" rx="15" fill="#F8F4F4"/></g><g filter="url(#filter1_d_1836_1305)"><path fill-rule="evenodd" clip-rule="evenodd" d="M97.861 39.438H18v49.965c0 6.132 17.877 11.103 39.93 11.103 22.054 0 39.931-4.97 39.931-11.103V39.437z" fill="#fff"/></g><g filter="url(#filter2_i_1836_1305)"><ellipse cx="57.931" cy="40.23" rx="39.931" ry="11.103" fill="#707070"/></g><g filter="url(#filter3_d_1836_1305)"><mask id="a" style="mask-type:alpha" maskUnits="userSpaceOnUse" x="18" y="39" width="80" height="62"><path fill-rule="evenodd" clip-rule="evenodd" d="M97.861 39.438H18v49.965c0 6.132 17.877 11.103 39.93 11.103 22.054 0 39.931-4.97 39.931-11.103V39.437z" fill="#fff"/></mask><g mask="url(#a)"><path fill-rule="evenodd" clip-rule="evenodd" d="M59.037 103.062c-12.103.033-42.18.116-42.533.134-.013-.616-.062-21.144-.018-24.494.019-2.91 2.045-4.968 4.852-4.955 2.807.014 4.792 2.084 4.803 5.008l-.003.546c-.013 1.106-.025 2.204.54 3.254 1 1.879 3.117 2.94 5.143 2.48a4.711 4.711 0 003.738-4.51c.01-.95.011-1.903.012-2.855.002-1.27.003-2.54.025-3.81a4.947 4.947 0 014.677-4.913h.041c2.476-.193 4.785 2.396 4.657 4.904-.085 1.65-.083 3.273 1.036 4.687a4.8 4.8 0 005.076 1.573c1.99-.625 3.325-2.26 3.362-4.195.013-.929.014-1.857.015-2.785.001-1.16.002-2.32.027-3.478a8.076 8.076 0 01.25-1.934c.093-.401.235-.788.422-1.152.358-.695.87-1.28 1.491-1.7a4.078 4.078 0 012.507-.706 4.731 4.731 0 012.736.722 4.733 4.733 0 012.214 3.989c0 1.762-.01 5.287-.022 9.43a4.552 4.552 0 002.357 1.856c.828.272 1.71.27 2.538-.004a4.39 4.39 0 002.112-1.538c1.032-1.407 1.044-3.031.976-4.681-.103-2.51 2.025-5.084 4.287-4.876h.037c1.151.077 2.231.632 3.02 1.55.79.918 1.228 2.13 1.227 3.391.012 1.27.006 2.539 0 3.809-.005.952-.01 1.904-.007 2.856a4.976 4.976 0 00.972 2.913c.616.823 1.468 1.394 2.42 1.62 1.849.47 3.79-.578 4.716-2.452.523-1.045.519-2.144.514-3.25-.001-.182-.002-.364 0-.546.028-2.924 1.855-4.982 4.421-4.98 2.567.004 4.407 2.073 4.407 4.984.02 3.35-.148 23.878-.164 24.493-.323-.02-27.812-.28-38.88-.385z" fill="#C1141E"/></g></g><g filter="url(#filter4_d_1836_1305)"><path fill-rule="evenodd" clip-rule="evenodd" d="M48.088 15.46a.923.923 0 00-1.568-.047c-1.775 2.625-5.952 9.396-7.428 16.962a8.21 8.21 0 00-.28 1.68l-.016.118c-.052.393-.04.764.031 1.114.367 4.237 3.947 7.563 8.309 7.563 4.415 0 8.029-3.407 8.32-7.718a3.553 3.553 0 00.019-.456v-.108c0-.278-.013-.553-.04-.824-.497-6.487-5.432-15.142-7.347-18.284z" fill="#fff"/></g><g filter="url(#filter5_d_1836_1305)"><path fill-rule="evenodd" clip-rule="evenodd" d="M71.186 29.736a.9.9 0 00-1.547-.04c-1.217 1.872-3.477 5.776-4.319 10.096-.09.331-.149.676-.171 1.03l-.011.08c-.033.246-.024.478.02.697.23 2.63 2.453 4.694 5.162 4.694 2.747 0 4.996-2.124 5.17-4.81.006-.07.01-.14.01-.213v-.122c0-.18-.009-.357-.027-.532-.295-3.746-2.96-8.645-4.287-10.88z" fill="#fff"/></g><defs><filter id="filter0_i_1836_1305" x="0" y="0" width="117" height="117" filterUnits="userSpaceOnUse" color-interpolation-filters="sRGB"><feFlood flood-opacity="0" result="BackgroundImageFix"/><feBlend in="SourceGraphic" in2="BackgroundImageFix" result="shape"/><feColorMatrix in="SourceAlpha" values="0 0 0 0 0 0 0 0 0 0 0 0 0 0 0 0 0 0 127 0" result="hardAlpha"/><feOffset dx="2" dy="2"/><feGaussianBlur stdDeviation="3"/><feComposite in2="hardAlpha" operator="arithmetic" k2="-1" k3="1"/><feColorMatrix values="0 0 0 0 0 0 0 0 0 0 0 0 0 0 0 0 0 0 0.05 0"/><feBlend in2="shape" result="effect1_innerShadow_1836_1305"/></filter><filter id="filter1_d_1836_1305" x="15" y="32.438" width="85.861" height="68.068" filterUnits="userSpaceOnUse" color-interpolation-filters="sRGB"><feFlood flood-opacity="0" result="BackgroundImageFix"/><feColorMatrix in="SourceAlpha" values="0 0 0 0 0 0 0 0 0 0 0 0 0 0 0 0 0 0 127 0" result="hardAlpha"/><feOffset dy="-4"/><feGaussianBlur stdDeviation="1.5"/><feComposite in2="hardAlpha" operator="out"/><feColorMatrix values="0 0 0 0 0 0 0 0 0 0 0 0 0 0 0 0 0 0 0.25 0"/><feBlend in2="BackgroundImageFix" result="effect1_dropShadow_1836_1305"/><feBlend in="SourceGraphic" in2="effect1_dropShadow_1836_1305" result="shape"/></filter><filter id="filter2_i_1836_1305" x="18" y="29.127" width="79.861" height="26.207" filterUnits="userSpaceOnUse" color-interpolation-filters="sRGB"><feFlood flood-opacity="0" result="BackgroundImageFix"/><feBlend in="SourceGraphic" in2="BackgroundImageFix" result="shape"/><feColorMatrix in="SourceAlpha" values="0 0 0 0 0 0 0 0 0 0 0 0 0 0 0 0 0 0 127 0" result="hardAlpha"/><feOffset dy="4"/><feGaussianBlur stdDeviation="2.5"/><feComposite in2="hardAlpha" operator="arithmetic" k2="-1" k3="1"/><feColorMatrix values="0 0 0 0 0 0 0 0 0 0 0 0 0 0 0 0 0 0 0.5 0"/><feBlend in2="shape" result="effect1_innerShadow_1836_1305"/></filter><filter id="filter3_d_1836_1305" x="15" y="63.154" width="85.861" height="42.352" filterUnits="userSpaceOnUse" color-interpolation-filters="sRGB"><feFlood flood-opacity="0" result="BackgroundImageFix"/><feColorMatrix in="SourceAlpha" values="0 0 0 0 0 0 0 0 0 0 0 0 0 0 0 0 0 0 127 0" result="hardAlpha"/><feOffset dy="2"/><feGaussianBlur stdDeviation="1.5"/><feComposite in2="hardAlpha" operator="out"/><feColorMatrix values="0 0 0 0 0 0 0 0 0 0 0 0 0 0 0 0 0 0 0.3 0"/><feBlend in2="BackgroundImageFix" result="effect1_dropShadow_1836_1305"/><feBlend in="SourceGraphic" in2="effect1_dropShadow_1836_1305" result="shape"/></filter><filter id="filter4_d_1836_1305" x="35.764" y="14" width="22.711" height="33.85" filterUnits="userSpaceOnUse" color-interpolation-filters="sRGB"><feFlood flood-opacity="0" result="BackgroundImageFix"/><feColorMatrix in="SourceAlpha" values="0 0 0 0 0 0 0 0 0 0 0 0 0 0 0 0 0 0 127 0" result="hardAlpha"/><feOffset dy="2"/><feGaussianBlur stdDeviation="1.5"/><feComposite in2="hardAlpha" operator="out"/><feColorMatrix values="0 0 0 0 0 0 0 0 0 0 0 0 0 0 0 0 0 0 0.25 0"/><feBlend in2="BackgroundImageFix" result="effect1_dropShadow_1836_1305"/><feBlend in="SourceGraphic" in2="effect1_dropShadow_1836_1305" result="shape"/></filter><filter id="filter5_d_1836_1305" x="62.118" y="28.275" width="16.382" height="23.018" filterUnits="userSpaceOnUse" color-interpolation-filters="sRGB"><feFlood flood-opacity="0" result="BackgroundImageFix"/><feColorMatrix in="SourceAlpha" values="0 0 0 0 0 0 0 0 0 0 0 0 0 0 0 0 0 0 127 0" result="hardAlpha"/><feOffset dy="2"/><feGaussianBlur stdDeviation="1.5"/><feComposite in2="hardAlpha" operator="out"/><feColorMatrix values="0 0 0 0 0 0 0 0 0 0 0 0 0 0 0 0 0 0 0.25 0"/><feBlend in2="BackgroundImageFix" result="effect1_dropShadow_1836_1305"/><feBlend in="SourceGraphic" in2="effect1_dropShadow_1836_1305" result="shape"/></filter></defs></svg>
